!!!OTL: WO FEHLT ES DIR MEIN HERZ
!!!ARE: Europa, Mitteleuropa, Deutschland; France, Elsass, Willer
!!!SCT: E0694
!!!YEM: Copyright 1995, estate of Helmut Schaffrath.
**kern
*ICvox
*Ivox
*M4/4
*k[f#]
*G:
{4d
=1
4.g
8a
8b
8a
8g
8f#
=2
2g
4r}
{4dd
=3
4.a
8g
8f#
8e
8d
8c
=4
4c
4B
4r}
{4d
=5
4.g
8a
8b
8a
8g
8f#
=6
2g
4r}
{4dd
=7
4.a
8g
8f#
8e
8d
8c
=8
4c
4B
4r}
{4d
=9
4.g
8d
8g
8b
8a
8g
=10
2f#
4r}
{4d
=11
4.g
8d
8g
8b
8a
8g
=12
2f#
4r}
{4d
=13
4g
4g
4a
4dd
=14
2.cc}
{4ee
=15
8dd
8cc
8b
8a
4b
4a
=16
2g
4r}
==
!!!AGN: Liebes - Lied, Leid, Klage
!!!ONB: ESAC (Essen Associative Code) Database: ERK2
!!!AMT: simple quadruple
!!!AIN: vox
!!!EED: Helmut Schaffrath
!!!EEV: 1.0
*-
